src/images/mahasiswa/mahasiswa-male-1.svg

<svg width="120" height="120" viewBox="0 0 120 120" fill="none" xmlns="http://www.w3.org/2000/svg">
<path d="M120.001 60C120.001 93.1377 93.1377 120 60 120C26.8632 120 0 93.1377 0 60C0 26.8623 26.8632 0 60 0C93.1377 0 120.001 26.8623 120.001 60Z" fill="#F24E69"/>
<path d="M105.614 86.8115C101.829 81.7287 77.9886 74.1841 76.9422 73.3339C75.8958 72.4837 72.5593 67.9701 72.5593 67.9701H72.3304V63.0253C73.7631 61.2278 74.8688 59.3955 75.578 57.9292C76.0521 56.9451 76.4609 54.8462 76.8083 52.1689C80.7364 50.3673 81.2126 44.0868 81.3771 40.5675C81.4425 39.1726 80.9142 38.8068 80.2203 38.9008C81.4558 34.9196 82.5492 29.9573 82.1343 25.7748C82.2447 25.083 82.3407 24.3891 82.4061 23.6922C83.1358 23.7995 83.8654 23.9068 84.596 24.0151C82.8404 19.619 79.8555 15.7216 76.0685 12.8818C76.7705 12.7009 77.4725 12.519 78.1745 12.3381C74.0104 10.9259 69.7175 9.8969 65.3653 9.26743C65.9887 8.84539 66.612 8.42434 67.2364 8.0023C64.7655 7.99413 62.2977 8.46829 59.9995 9.37266C57.7013 8.46829 55.2334 7.99413 52.7635 8.0023C53.3869 8.42434 54.0102 8.84539 54.6346 9.26743C50.2827 9.8969 45.9888 10.9259 41.8251 12.3381C42.5272 12.519 43.2293 12.7009 43.9319 12.8818C40.1446 15.7216 37.1592 19.619 35.4044 24.0151C36.134 23.9068 36.8634 23.7995 37.5935 23.6922C37.6589 24.3891 37.7547 25.083 37.8657 25.7738C37.4501 29.9543 38.5427 34.9124 39.7769 38.8916C39.1282 38.8415 38.6468 39.2329 38.7096 40.5675C38.8748 44.0889 39.3502 50.3724 43.2829 52.1719C43.6313 54.8472 44.0397 56.9461 44.5151 57.9292C45.2084 59.3649 46.2818 61.1491 47.6693 62.9098V67.9701H47.4402C47.4402 67.9701 44.1044 72.4837 43.0572 73.3339C42.011 74.1841 18.1703 81.7287 14.3849 86.8115C12.965 88.7173 11.7978 91.3261 10.8319 94.3693C21.6813 109.861 39.6511 120 59.9995 120C80.3481 120 98.3188 109.861 109.168 94.3693C108.201 91.3261 107.034 88.7173 105.614 86.8115Z" fill="#641A24"/>
</svg>

<?xml version="1.0" encoding="UTF-8" standalone="no"?>
<svg width="120" xmlns="http://www.w3.org/2000/svg" viewBox="0 0 120 120" height="120">
 <path d="m120 60c0 33.138-26.862 60-60 60-33.137 0-60-26.862-60-60s26.863-60 60-60c33.138 0 60 26.862 60 60z" fill="#F24E69"/>
 <path d="m105.61 86.812c-3.78-5.083-27.621-12.628-28.668-13.478-1.046-0.85-4.383-5.364-4.383-5.364h-0.229v-4.945c1.433-1.797 2.539-3.629 3.248-5.096 0.474-0.984 0.883-3.083 1.23-5.76 3.928-1.802 4.405-8.082 4.569-11.601 0.065-1.395-0.463-1.761-1.157-1.667 1.236-3.981 2.329-8.944 1.914-13.126 0.111-0.692 0.207-1.386 0.272-2.083 0.73 0.108 1.459 0.215 2.19 0.323-1.756-4.396-4.74-8.293-8.528-11.133 0.702-0.181 1.404-0.363 2.106-0.544-4.164-1.412-8.456-2.4411-12.809-3.0706 0.624-0.422 1.247-0.8431 1.871-1.2651-2.47-0.0082-4.938 0.466-7.236 1.3704-2.299-0.9044-4.767-1.3786-7.236-1.3704 0.623 0.422 1.246 0.8431 1.871 1.2651-4.352 0.6295-8.646 1.6586-12.81 3.0706 0.702 0.181 1.404 0.363 2.107 0.544-3.787 2.84-6.773 6.737-8.528 11.133 0.73-0.108 1.459-0.215 2.19-0.323 0.065 0.697 0.161 1.391 0.272 2.082-0.416 4.18 0.677 9.138 1.911 13.118-0.649-0.05-1.13 0.341-1.067 1.676 0.165 3.521 0.64 9.804 4.573 11.604 0.348 2.675 0.757 4.774 1.232 5.757 0.693 1.436 1.767 3.22 3.154 4.981v5.06h-0.229s-3.336 4.514-4.383 5.364c-1.046 0.85-24.887 8.395-28.672 13.478-1.42 1.905-2.587 4.514-3.553 7.557 10.849 15.491 28.819 25.631 49.168 25.631 20.348 0 38.319-10.14 49.17-25.631-0.97-3.043-2.14-5.652-3.56-7.557z" fill="#641A24"/>
</svg>
